; generated by PrusaSlicer 2.3.0 on 2021-08-15 at 20:09:48 UTC

; 

; external perimeters extrusion width = 0.45mm
; perimeters extrusion width = 0.45mm
; infill extrusion width = 0.45mm
; solid infill extrusion width = 0.45mm
; top infill extrusion width = 0.40mm
; first layer extrusion width = 0.42mm

M73 P0 R134
M73 Q0 S136
M201 X1000 Y1000 Z200 E5000 ; sets maximum accelerations, mm/sec^2
M203 X200 Y200 Z12 E120 ; sets maximum feedrates, mm/sec
M204 P1250 R1250 T1250 ; sets acceleration (P, T) and retract acceleration (R), mm/sec^2
M205 X8.00 Y8.00 Z0.40 E4.50 ; sets the jerk limits, mm/sec
M205 S0 T0 ; sets the minimum extruding and travel feed rate, mm/sec
M107
;TYPE:Custom
M862.3 P "MK3S" ; printer model check
M862.1 P0.4 ; nozzle diameter check
M115 U3.9.2 ; tell printer latest fw version
G90 ; use absolute coordinates
M83 ; extruder relative mode
M104 S240 ; set extruder temp
M140 S85 ; set bed temp
M190 S85 ; wait for bed temp
M109 S240 ; wait for extruder temp
G28 W ; home all without mesh bed level
G80 ; mesh bed leveling
G1 Y-3.0 F1000.0 ; go outside print area
G92 E0.0
G1 X60.0 E9.0 F1000.0 ; intro line
G1 X100.0 E12.5 F1000.0 ; intro line
G92 E0.0
M221 S95

; Don't change E values below. Excessive value can damage the printer.
M907 E430 ; set extruder motor current
G21 ; set units to millimeters
G90 ; use absolute coordinates
M83 ; use relative distances for extrusion
M900 K0.08 ; Filament gcode LA 1.5
M900 K45 ; Filament gcode LA 1.0
;LAYER_CHANGE
;Z:0.2
;HEIGHT:0.2
;BEFORE_LAYER_CHANGE
G92 E0.0
;0.2


G1 E-1.40000 F2100.000
G1 Z0.200 F10800.000
;AFTER_LAYER_CHANGE
;0.2
G1 Z0.400
G1 X182.266 Y208.505
G1 Z0.200
G1 E1.40000 F2100.000
M204 S1000
;TYPE:Skirt
;WIDTH:0.42
G1 F1200.000
G1 X181.381 Y208.677 E0.02825
G1 X69.087 Y208.677 E3.52091
G1 X68.455 Y208.592 E0.02000
G1 X67.964 Y208.395 E0.01657
G1 X66.948 Y207.784 E0.03718
G1 X61.986 Y204.531 E0.18602
G1 X57.230 Y201.036 E0.18507
G1 X54.133 Y198.541 E0.12470
G1 X51.124 Y195.934 E0.12483
G1 X46.846 Y191.879 E0.18481
G1 X44.081 Y189.014 E0.12482
G1 X41.377 Y186.000 E0.12696
G1 X37.684 Y181.498 E0.18257
G1 X35.298 Y178.312 E0.12482
G1 X33.030 Y175.044 E0.12472
G1 X29.888 Y170.057 E0.18481
G1 X27.917 Y166.598 E0.12482
G1 X26.074 Y163.073 E0.12472
G1 X24.356 Y159.479 E0.12492
G1 X22.062 Y154.077 E0.18400
G1 X20.671 Y150.347 E0.12482
G1 X19.415 Y146.573 E0.12472
G1 X17.805 Y140.903 E0.18481
G1 X16.890 Y137.032 E0.12470
G1 X16.117 Y133.147 E0.12422
G1 X15.481 Y129.220 E0.12472
G1 X14.799 Y123.366 E0.18481
G1 X14.515 Y119.399 E0.12470
G1 X14.373 Y115.420 E0.12483
G1 X14.426 Y109.526 E0.18481
G1 X14.638 Y105.550 E0.12482
G1 X14.991 Y101.608 E0.12411
G1 X15.484 Y97.681 E0.12410
G1 X16.126 Y93.729 E0.12553
G1 X17.323 Y87.984 E0.18399
G1 X18.307 Y84.126 E0.12482
G1 X19.428 Y80.310 E0.12472
G1 X21.315 Y74.801 E0.18257
G1 X22.795 Y71.033 E0.12694
G1 X24.376 Y67.400 E0.12422
G1 X26.093 Y63.812 E0.12472
G1 X28.872 Y58.614 E0.18481
G1 X30.903 Y55.190 E0.12482
G1 X33.054 Y51.844 E0.12472
G1 X35.312 Y48.593 E0.12410
G1 X38.886 Y43.906 E0.18481
G1 X41.436 Y40.854 E0.12470
G1 X44.097 Y37.893 E0.12484
G1 X48.227 Y33.688 E0.18481
G1 X51.141 Y30.975 E0.12482
G1 X54.147 Y28.370 E0.12472
G1 X58.770 Y24.713 E0.18481
G1 X61.998 Y22.384 E0.12482
G1 X65.306 Y20.175 E0.12472
G1 X70.348 Y17.122 E0.18481
G1 X73.842 Y15.214 E0.12482
G1 X77.381 Y13.442 E0.12410
G1 X81.000 Y11.790 E0.12472
G1 X86.465 Y9.583 E0.18481
G1 X90.219 Y8.258 E0.12482
G1 X94.015 Y7.070 E0.12472
G1 X99.713 Y5.561 E0.18481
G1 X103.600 Y4.716 E0.12470
G1 X107.499 Y4.012 E0.12422
G1 X111.436 Y3.447 E0.12472
G1 X117.302 Y2.869 E0.18481
G1 X121.277 Y2.655 E0.12482
G1 X125.238 Y2.585 E0.12422
G1 X131.188 Y2.745 E0.18664
G1 X135.113 Y3.026 E0.12337
G1 X139.030 Y3.447 E0.12351
G1 X144.921 Y4.347 E0.18686
G1 X150.733 Y5.557 E0.18614
G1 X156.491 Y7.082 E0.18676
G1 X160.246 Y8.258 E0.12337
G1 X163.960 Y9.568 E0.12351
G1 X169.483 Y11.798 E0.18674
G1 X174.865 Y14.313 E0.18626
G1 X180.100 Y17.112 E0.18614
G1 X185.195 Y20.198 E0.18676
G1 X188.470 Y22.386 E0.12349
G1 X191.662 Y24.688 E0.12339
G1 X196.333 Y28.382 E0.18674
G1 X200.788 Y32.313 E0.18626
G1 X205.036 Y36.487 E0.18676
G1 X209.042 Y40.869 E0.18614
G1 X211.567 Y43.891 E0.12349
G1 X213.982 Y46.999 E0.12339
G1 X217.422 Y51.860 E0.18674
G1 X220.599 Y56.903 E0.18687
G1 X223.490 Y62.088 E0.18614
G1 X225.251 Y65.607 E0.12337
G1 X226.843 Y69.089 E0.12004
G1 X229.118 Y74.712 E0.19020
G1 X231.043 Y80.328 E0.18614
G1 X232.666 Y86.043 E0.18626
G1 X233.983 Y91.852 E0.18676
G1 X234.988 Y97.729 E0.18696
G1 X235.475 Y101.611 E0.12268
G1 X235.826 Y105.531 E0.12339
G1 X236.092 Y111.484 E0.18686
G1 X236.039 Y117.421 E0.18614
G1 X235.667 Y123.366 E0.18676
G1 X235.245 Y127.282 E0.12349
G1 X234.685 Y131.177 E0.12339
G1 X233.576 Y137.028 E0.18674
G1 X232.159 Y142.797 E0.18626
G1 X230.442 Y148.457 E0.18543
G1 X229.111 Y152.229 E0.12543
G1 X226.897 Y157.712 E0.18541
G1 X224.391 Y163.073 E0.18555
G1 X222.537 Y166.618 E0.12543
G1 X219.563 Y171.733 E0.18553
G1 X216.321 Y176.680 E0.18543
G1 X213.984 Y179.921 E0.12530
G1 X210.312 Y184.562 E0.18555
G1 X206.397 Y189.000 E0.18554
G1 X203.620 Y191.879 E0.12543
G1 X199.327 Y195.946 E0.18541
G1 X194.821 Y199.782 E0.18554
G1 X191.662 Y202.236 E0.12543
G1 X186.831 Y205.654 E0.18553
G1 X183.515 Y207.785 E0.12363
G1 X182.318 Y208.475 E0.04331
; printing object bracket1-full-2.stl id:0 copy 0
;WIPE_START
G1 F8640.000
G1 X181.381 Y208.677 E-0.22120
G1 X176.579 Y208.677 E-1.10880
;WIPE_END
G1 E-0.07000 F2100.000
G1 Z0.400 F10800.000
G1 X175.267 Y205.522
G1 Z0.200
G1 E1.40000 F2100.000
;TYPE:Perimeter
G1 F1200.000
G1 X176.519 Y204.840 E0.04471
G1 X178.180 Y203.888 E0.06001
G1 X179.920 Y202.846 E0.06361
G1 X181.408 Y201.919 E0.05496
G1 X182.974 Y200.904 E0.05851
G1 X184.639 Y199.782 E0.06296
G1 X186.205 Y198.684 E0.05997
G1 X187.729 Y197.572 E0.05915
G1 X189.275 Y196.401 E0.06079
G1 X190.778 Y195.219 E0.05997
G1 X192.329 Y193.950 E0.06285
G1 X193.752 Y192.742 E0.05851
G1 X195.068 Y191.584 E0.05496
G1 X196.571 Y190.216 E0.06372
G1 X197.979 Y188.883 E0.06079
G1 X199.325 Y187.561 E0.05916
G1 X200.665 Y186.197 E0.05995
G1 X201.980 Y184.808 E0.05998
G1 X203.314 Y183.344 E0.06209
G1 X204.546 Y181.943 E0.05851
G1 X205.753 Y180.520 E0.05849
G1 X206.983 Y179.015 E0.06095
G1 X208.182 Y177.491 E0.06079
G1 X209.321 Y175.988 E0.05915
G1 X210.448 Y174.443 E0.05997
G1 X211.547 Y172.877 E0.05998
G1 X212.641 Y171.255 E0.06133
G1 X213.656 Y169.690 E0.05849
G1 X214.643 Y168.107 E0.05851
G1 X215.654 Y166.418 E0.06171
G1 X216.618 Y164.736 E0.06079
M73 Q0 S135
G1 X217.539 Y163.059 E0.05997
G1 X218.429 Y161.366 E0.05997
G1 X219.276 Y159.681 E0.05916
G1 X220.112 Y157.939 E0.06056
G1 X220.935 Y156.139 E0.06205
G1 X221.677 Y154.436 E0.05827
G1 X222.399 Y152.693 E0.05915
G1 X223.108 Y150.888 E0.06079
G1 X223.775 Y149.096 E0.05997
G1 X224.409 Y147.291 E0.05996
G1 X225.014 Y145.461 E0.06045
G1 X225.568 Y143.679 E0.05851
G1 X226.121 Y141.779 E0.06206
G1 X226.614 Y139.961 E0.05903
G1 X227.081 Y138.107 E0.05996
G1 X227.513 Y136.244 E0.05997
G1 X227.907 Y134.399 E0.05915
G1 X228.277 Y132.495 E0.06079
G1 X228.623 Y130.509 E0.06323
G1 X228.911 Y128.665 E0.05851
G1 X229.150 Y126.928 E0.05496
G1 X229.391 Y124.923 E0.06333
G1 X229.583 Y123.020 E0.05998
G1 X229.740 Y121.113 E0.05997
G1 X229.862 Y119.205 E0.05997
G1 X229.950 Y117.294 E0.05997
G1 X230.004 Y115.281 E0.06313
G1 X230.020 Y113.462 E0.05705
G1 X230.003 Y111.617 E0.05784
G1 X229.950 Y109.640 E0.06202
G1 X229.861 Y107.703 E0.06078
G1 X229.741 Y105.821 E0.05915
G1 X229.584 Y103.915 E0.05997
G1 X229.392 Y102.011 E0.05998
G1 X229.159 Y100.057 E0.06171
G1 X228.904 Y98.209 E0.05850
G1 X228.616 Y96.365 E0.05850
G1 X228.279 Y94.439 E0.06133
G1 X227.909 Y92.535 E0.06079
G1 X227.516 Y90.690 E0.05915
M73 P0 R133
G1 X227.083 Y88.827 E0.05997
G1 X226.616 Y86.972 E0.05999
G1 X226.076 Y84.988 E0.06447
G1 X225.587 Y83.305 E0.05496
G1 X225.033 Y81.523 E0.05851
G1 X224.404 Y79.618 E0.06290
G1 X223.770 Y77.813 E0.05997
G1 X223.103 Y76.021 E0.05997
G1 X222.413 Y74.265 E0.05915
G1 X221.660 Y72.448 E0.06166
G1 X220.868 Y70.635 E0.06204
G1 X220.090 Y68.938 E0.05851
G1 X219.332 Y67.358 E0.05496
G1 X218.422 Y65.544 E0.06365
G1 X217.531 Y63.851 E0.05998
G1 X216.611 Y62.174 E0.05996
G1 X215.659 Y60.515 E0.05998
G1 X214.617 Y58.775 E0.06361
G1 X213.690 Y57.287 E0.05496
G1 X212.675 Y55.721 E0.05851
G1 X211.553 Y54.055 E0.06296
G1 X210.454 Y52.490 E0.05998
G1 X209.312 Y50.924 E0.06079
G1 X208.172 Y49.420 E0.05915
G1 X206.990 Y47.917 E0.05997
G1 X205.793 Y46.452 E0.05930
G1 X204.513 Y44.942 E0.06206
G1 X203.280 Y43.541 E0.05851
G1 X201.987 Y42.124 E0.06017
G1 X200.672 Y40.734 E0.05997
G1 X199.332 Y39.370 E0.05996
G1 X197.968 Y38.030 E0.05997
G1 X196.578 Y36.715 E0.05998
G1 X195.115 Y35.380 E0.06209
G1 X193.714 Y34.148 E0.05851
G1 X192.291 Y32.942 E0.05849
G1 X190.786 Y31.712 E0.06095
G1 X189.262 Y30.513 E0.06079
G1 X187.759 Y29.374 E0.05915
G1 X186.214 Y28.246 E0.05997
G1 X184.648 Y27.147 E0.05998
G1 X183.026 Y26.053 E0.06133
G1 X181.461 Y25.038 E0.05849
G1 X179.878 Y24.051 E0.05851
G1 X178.189 Y23.041 E0.06171
G1 X176.507 Y22.076 E0.06079
G1 X174.830 Y21.156 E0.05997
G1 X173.161 Y20.278 E0.05915
G1 X171.392 Y19.389 E0.06204
G1 X169.608 Y18.535 E0.06204
G1 X168.014 Y17.806 E0.05496
G1 X166.304 Y17.059 E0.05851
G1 X164.440 Y16.286 E0.06328
G1 X162.659 Y15.586 E0.05997
G1 X160.891 Y14.929 E0.05915
G1 X159.062 Y14.286 E0.06078
G1 X157.232 Y13.680 E0.06045
G1 X155.450 Y13.126 E0.05851
G1 X153.658 Y12.604 E0.05851
G1 X151.732 Y12.081 E0.06258
G1 X149.878 Y11.614 E0.05997
G1 X148.015 Y11.181 E0.05997
G1 X146.144 Y10.782 E0.05997
G1 X144.266 Y10.418 E0.05997
G1 X142.391 Y10.089 E0.05968
G1 X140.436 Y9.784 E0.06206
G1 X138.587 Y9.529 E0.05851
G1 X136.694 Y9.303 E0.05979
G1 X134.791 Y9.111 E0.05997
G1 X132.884 Y8.954 E0.05997
G1 X130.976 Y8.832 E0.05996
G1 X129.065 Y8.745 E0.05997
G1 X127.187 Y8.693 E0.05892
G1 X125.207 Y8.675 E0.06206
G1 X123.341 Y8.692 E0.05851
G1 X121.411 Y8.744 E0.06054
G1 X119.500 Y8.832 E0.05997
G1 X117.566 Y8.956 E0.06079
G1 X115.685 Y9.111 E0.05915
G1 X113.782 Y9.302 E0.05998
G1 X111.828 Y9.536 E0.06172
G1 X109.868 Y9.808 E0.06204
G1 X108.068 Y10.090 E0.05712
G1 X106.210 Y10.416 E0.05916
G1 X104.332 Y10.780 E0.05997
G1 X102.461 Y11.179 E0.05997
G1 X100.573 Y11.618 E0.06079
G1 X98.668 Y12.098 E0.06160
G1 X96.867 Y12.587 E0.05850
G1 X95.076 Y13.108 E0.05850
G1 X93.205 Y13.689 E0.06143
G1 X91.389 Y14.291 E0.05998
G1 X89.584 Y14.925 E0.05997
G1 X87.792 Y15.592 E0.05997
G1 X86.036 Y16.282 E0.05915
G1 X84.219 Y17.035 E0.06166
G1 X82.612 Y17.735 E0.05496
G1 X80.710 Y18.604 E0.06559
G1 X79.023 Y19.414 E0.05866
G1 X77.314 Y20.273 E0.05997
G1 X75.622 Y21.163 E0.05996
G1 X73.945 Y22.084 E0.05998
G1 X72.286 Y23.035 E0.05996
G1 X70.642 Y24.018 E0.06006
G1 X69.058 Y25.005 E0.05851
G1 X67.397 Y26.081 E0.06206
G1 X65.826 Y27.141 E0.05941
G1 X64.261 Y28.240 E0.05997
G1 X62.715 Y29.367 E0.05997
G1 X61.191 Y30.522 E0.05997
G1 X59.688 Y31.705 E0.05996
G1 X58.223 Y32.901 E0.05930
G1 X56.713 Y34.181 E0.06206
G1 X55.312 Y35.414 E0.05851
G1 X53.894 Y36.708 E0.06017
G1 X52.505 Y38.023 E0.05997
G1 X51.141 Y39.363 E0.05997
G1 X49.801 Y40.727 E0.05996
G1 X48.486 Y42.116 E0.05997
G1 X47.227 Y43.495 E0.05854
G1 X45.919 Y44.980 E0.06206
G1 X44.713 Y46.403 E0.05850
G1 X43.483 Y47.908 E0.06095
G1 X42.300 Y49.411 E0.05997
G1 X41.144 Y50.936 E0.05997
G1 X40.017 Y52.481 E0.05997
G1 X38.918 Y54.047 E0.05998
G1 X37.824 Y55.668 E0.06133
G1 X36.871 Y57.139 E0.05496
G1 X35.780 Y58.886 E0.06458
G1 X34.812 Y60.506 E0.05917
G1 X33.847 Y62.188 E0.06079
G1 X32.927 Y63.864 E0.05997
G1 X32.037 Y65.557 E0.05997
G1 X31.189 Y67.243 E0.05916
G1 X30.353 Y68.984 E0.06056
G1 X29.577 Y70.681 E0.05851
G1 X28.789 Y72.488 E0.06182
G1 X28.057 Y74.255 E0.05998
G1 X27.357 Y76.035 E0.05997
G1 X26.691 Y77.828 E0.05997
G1 X26.057 Y79.632 E0.05996
G1 X25.451 Y81.462 E0.06045
G1 X24.897 Y83.245 E0.05851
G1 X24.344 Y85.145 E0.06206
G1 X23.852 Y86.962 E0.05903
G1 X23.385 Y88.817 E0.05996
G1 X22.958 Y90.655 E0.05916
G1 X22.553 Y92.550 E0.06078
G1 X22.189 Y94.428 E0.05998
G1 X21.842 Y96.415 E0.06323
G1 X21.555 Y98.259 E0.05851
G1 X21.300 Y100.107 E0.05851
G1 X21.074 Y102.001 E0.05979
G1 X20.882 Y103.904 E0.05997
G1 X20.725 Y105.810 E0.05997
G1 X20.603 Y107.719 E0.05997
G1 X20.516 Y109.629 E0.05996
G1 X20.464 Y111.508 E0.05892
G1 X20.446 Y113.487 E0.06206
G1 X20.463 Y115.353 E0.05851
G1 X20.515 Y117.284 E0.06055
G1 X20.603 Y119.194 E0.05996
G1 X20.725 Y121.103 E0.05997
G1 X20.881 Y123.009 E0.05997
G1 X21.073 Y124.912 E0.05998
G1 X21.307 Y126.866 E0.06171
G1 X21.546 Y128.603 E0.05496
G1 X21.861 Y130.626 E0.06420
G1 X22.187 Y132.485 E0.05917
G1 X22.551 Y134.362 E0.05997
G1 X22.950 Y136.233 E0.05997
G1 X23.382 Y138.096 E0.05997
G1 X23.849 Y139.951 E0.05998
G1 X24.328 Y141.718 E0.05740
G1 X24.912 Y143.727 E0.06559
G1 X25.460 Y145.490 E0.05789
G1 X26.062 Y147.306 E0.05998
G1 X26.696 Y149.110 E0.05997
G1 X27.363 Y150.903 E0.05997
G1 X28.063 Y152.683 E0.05997
G1 X28.805 Y154.475 E0.06084
G1 X29.551 Y156.186 E0.05849
G1 X30.327 Y157.882 E0.05851
G1 X31.185 Y159.671 E0.06220
G1 X32.044 Y161.380 E0.05998
G1 X32.934 Y163.073 E0.05996
G1 X33.855 Y164.749 E0.05997
G1 X34.806 Y166.408 E0.05997
G1 X35.789 Y168.053 E0.06006
G1 X36.776 Y169.637 E0.05851
G1 X37.852 Y171.298 E0.06206
G1 X38.912 Y172.868 E0.05941
G1 X40.011 Y174.434 E0.05997
G1 X41.138 Y175.979 E0.05997
G1 X42.293 Y177.504 E0.05998
G1 X43.563 Y179.114 E0.06429
G1 X44.672 Y180.472 E0.05496
G1 X45.878 Y181.895 E0.05851
G1 X47.110 Y183.297 E0.05851
G1 X48.478 Y184.800 E0.06372
G1 X49.794 Y186.189 E0.05998
G1 X51.134 Y187.554 E0.05997
G1 X52.517 Y188.912 E0.06078
G1 X53.971 Y190.286 E0.06272
G1 X55.266 Y191.468 E0.05496
G1 X56.666 Y192.701 E0.05851
G1 X58.174 Y193.982 E0.06204
G1 X59.679 Y195.212 E0.06095
G1 X61.182 Y196.395 E0.05997
G1 X62.728 Y197.566 E0.06079
G1 X64.273 Y198.692 E0.05997
G1 X65.818 Y199.776 E0.05916
G1 X67.345 Y200.807 E0.05778
G1 X69.004 Y201.885 E0.06205
G1 X70.657 Y202.915 E0.06106
G1 X72.299 Y203.896 E0.05998
G1 X73.959 Y204.848 E0.05999
G1 X75.196 Y205.522 E0.04418
G1 X69.311 Y205.513 E0.18455
G1 X66.997 Y204.075 E0.08541
G1 X65.391 Y203.022 E0.06023
G1 X63.802 Y201.939 E0.06028
G1 X62.232 Y200.829 E0.06028
G1 X60.683 Y199.690 E0.06028
G1 X59.154 Y198.525 E0.06028
G1 X57.646 Y197.332 E0.06028
G1 X56.160 Y196.112 E0.06028
G1 X54.696 Y194.866 E0.06028
G1 X53.254 Y193.594 E0.06028
G1 X51.835 Y192.296 E0.06028
G1 X50.440 Y190.974 E0.06028
G1 X49.068 Y189.626 E0.06028
G1 X47.721 Y188.255 E0.06028
G1 X46.398 Y186.859 E0.06028
G1 X45.101 Y185.440 E0.06028
G1 X43.829 Y183.999 E0.06028
G1 X42.583 Y182.535 E0.06028
G1 X41.363 Y181.048 E0.06028
G1 X40.170 Y179.541 E0.06028
G1 X39.004 Y178.012 E0.06028
G1 X37.866 Y176.462 E0.06028
G1 X36.755 Y174.893 E0.06028
G1 X35.673 Y173.304 E0.06028
G1 X34.632 Y171.716 E0.05953
G1 X33.594 Y170.069 E0.06104
G1 X32.598 Y168.424 E0.06028
G1 X31.632 Y166.762 E0.06028
G1 X30.695 Y165.083 E0.06028
G1 X29.789 Y163.387 E0.06028
G1 X28.913 Y161.676 E0.06028
G1 X28.068 Y159.949 E0.06028
G1 X27.244 Y158.185 E0.06104
G1 X26.471 Y156.451 E0.05953
G1 X25.719 Y154.682 E0.06028
G1 X24.999 Y152.899 E0.06028
G1 X24.311 Y151.104 E0.06028
G1 X23.655 Y149.296 E0.06028
G1 X23.032 Y147.477 E0.06028
G1 X22.441 Y145.648 E0.06028
G1 X21.883 Y143.808 E0.06028
G1 X21.358 Y141.958 E0.06028
G1 X20.866 Y140.100 E0.06028
G1 X20.407 Y138.233 E0.06028
G1 X19.981 Y136.358 E0.06028
G1 X19.590 Y134.476 E0.06028
G1 X19.231 Y132.587 E0.06028
G1 X18.907 Y130.692 E0.06028
G1 X18.616 Y128.791 E0.06028
G1 X18.360 Y126.885 E0.06028
G1 X18.137 Y124.976 E0.06028
G1 X17.949 Y123.062 E0.06028
G1 X17.794 Y121.146 E0.06028
G1 X17.674 Y119.227 E0.06028
G1 X17.588 Y117.306 E0.06028
G1 X17.537 Y115.384 E0.06028
G1 X17.520 Y113.462 E0.06028
G1 X17.537 Y111.539 E0.06028
G1 X17.588 Y109.617 E0.06028
G1 X17.674 Y107.697 E0.06028
G1 X17.794 Y105.778 E0.06028
G1 X17.949 Y103.861 E0.06028
G1 X18.137 Y101.948 E0.06028
G1 X18.360 Y100.038 E0.06028
G1 X18.616 Y98.133 E0.06028
G1 X18.907 Y96.232 E0.06028
G1 X19.231 Y94.337 E0.06028
G1 X19.590 Y92.448 E0.06028
