; generated by PrusaSlicer 2.3.0 on 2021-08-15 at 18:59:12 UTC

; 

; external perimeters extrusion width = 0.45mm
; perimeters extrusion width = 0.45mm
; infill extrusion width = 0.45mm
; solid infill extrusion width = 0.45mm
; top infill extrusion width = 0.40mm
; first layer extrusion width = 0.42mm

M73 P0 R42
M73 Q0 S43
M201 X1000 Y1000 Z200 E5000 ; sets maximum accelerations, mm/sec^2
M203 X200 Y200 Z12 E120 ; sets maximum feedrates, mm/sec
M204 P1250 R1250 T1250 ; sets acceleration (P, T) and retract acceleration (R), mm/sec^2
M205 X8.00 Y8.00 Z0.40 E4.50 ; sets the jerk limits, mm/sec
M205 S0 T0 ; sets the minimum extruding and travel feed rate, mm/sec
M107
;TYPE:Custom
M862.3 P "MK3S" ; printer model check
M862.1 P0.4 ; nozzle diameter check
M115 U3.9.2 ; tell printer latest fw version
G90 ; use absolute coordinates
M83 ; extruder relative mode
M104 S240 ; set extruder temp
M140 S85 ; set bed temp
M190 S85 ; wait for bed temp
M109 S240 ; wait for extruder temp
G28 W ; home all without mesh bed level
G80 ; mesh bed leveling
G1 Y-3.0 F1000.0 ; go outside print area
G92 E0.0
G1 X60.0 E9.0 F1000.0 ; intro line
G1 X100.0 E12.5 F1000.0 ; intro line
G92 E0.0
M221 S95

; Don't change E values below. Excessive value can damage the printer.
M907 E430 ; set extruder motor current
G21 ; set units to millimeters
G90 ; use absolute coordinates
M83 ; use relative distances for extrusion
M900 K0.08 ; Filament gcode LA 1.5
M900 K45 ; Filament gcode LA 1.0
;LAYER_CHANGE
;Z:0.2
;HEIGHT:0.2
;BEFORE_LAYER_CHANGE
G92 E0.0
;0.2


M73 P0 R41
G1 E-1.40000 F2100.000
G1 Z0.200 F10800.000
;AFTER_LAYER_CHANGE
;0.2
G1 Z0.400
G1 X53.444 Y71.680
G1 Z0.200
G1 E1.40000 F2100.000
M204 S1000
;TYPE:Skirt
;WIDTH:0.42
G1 F1200.000
G1 X52.708 Y71.272 E0.02637
G1 X49.254 Y68.015 E0.14887
G1 X48.778 Y67.330 E0.02614
G1 X48.584 Y66.663 E0.02178
G1 X48.591 Y65.965 E0.02190
G1 X48.799 Y65.302 E0.02178
G1 X49.192 Y64.725 E0.02190
G1 X52.140 Y61.722 E0.13193
G1 X55.178 Y58.852 E0.13106
G1 X58.323 Y56.098 E0.13105
G1 X61.572 Y53.463 E0.13117
G1 X64.836 Y51.011 E0.12801
G1 X67.179 Y49.363 E0.08981
G1 X71.882 Y46.318 E0.17566
G1 X75.461 Y44.217 E0.13012
G1 X77.920 Y42.875 E0.08785
G1 X80.413 Y41.597 E0.08783
G1 X84.162 Y39.819 E0.13011
G1 X89.312 Y37.649 E0.17521
G1 X94.563 Y35.741 E0.17519
G1 X97.217 Y34.889 E0.08737
G1 X101.206 Y33.745 E0.13012
G1 X106.639 Y32.441 E0.17521
G1 X112.117 Y31.415 E0.17473
G1 X117.653 Y30.664 E0.17519
G1 X121.709 Y30.294 E0.12768
G1 X124.568 Y30.122 E0.08981
G1 X130.151 Y30.000 E0.17509
G1 X135.725 Y30.158 E0.17485
G1 X141.280 Y30.597 E0.17473
G1 X146.807 Y31.314 E0.17473
G1 X152.290 Y32.308 E0.17473
G1 X157.717 Y33.576 E0.17473
M73 Q0 S42
G1 X163.072 Y35.115 E0.17473
G1 X168.344 Y36.921 E0.17473
G1 X173.522 Y38.991 E0.17485
G1 X176.079 Y40.127 E0.08771
G1 X179.816 Y41.930 E0.13011
G1 X184.738 Y44.577 E0.17521
G1 X189.519 Y47.468 E0.17519
G1 X192.958 Y49.758 E0.12954
G1 X195.249 Y51.390 E0.08819
G1 X197.494 Y53.077 E0.08807
G1 X200.744 Y55.682 E0.13059
G1 X203.896 Y58.409 E0.13070
G1 X206.027 Y60.378 E0.09095
G1 X206.434 Y60.945 E0.02190
G1 X206.658 Y61.602 E0.02178
G1 X206.682 Y62.300 E0.02190
G1 X206.503 Y62.975 E0.02190
G1 X206.090 Y63.620 E0.02402
G1 X202.834 Y67.056 E0.14840
G1 X202.155 Y67.492 E0.02532
G1 X201.368 Y67.676 E0.02532
G1 X54.275 Y71.805 E4.61382
G1 X53.503 Y71.689 E0.02449
; printing object bracket1-4th-2.stl id:0 copy 0
;WIPE_START
G1 F8640.000
G1 X52.708 Y71.272 E-0.20727
G1 X49.254 Y68.015 E-1.09632
G1 X49.188 Y67.921 E-0.02642
;WIPE_END
G1 E-0.07000 F2100.000
G1 Z0.400 F10800.000
G1 X54.184 Y68.323
G1 Z0.200
G1 E1.40000 F2100.000
;TYPE:Perimeter
G1 F1200.000
G1 X52.058 Y66.313 E0.09173
G1 X53.396 Y64.934 E0.06025
G1 X54.354 Y63.982 E0.04233
M73 P1 R41
G1 X56.311 Y62.110 E0.08494
G1 X58.314 Y60.288 E0.08488
G1 X60.362 Y58.518 E0.08488
G1 X62.453 Y56.799 E0.08488
M73 Q1 S42
G1 X64.587 Y55.134 E0.08488
G1 X66.763 Y53.523 E0.08488
G1 X68.978 Y51.966 E0.08488
G1 X71.231 Y50.467 E0.08488
G1 X73.522 Y49.024 E0.08488
G1 X75.848 Y47.639 E0.08488
G1 X78.208 Y46.313 E0.08488
G1 X80.601 Y45.047 E0.08488
G1 X83.024 Y43.841 E0.08488
G1 X85.478 Y42.697 E0.08488
G1 X87.959 Y41.614 E0.08488
G1 X90.467 Y40.595 E0.08488
G1 X92.999 Y39.638 E0.08488
G1 X95.555 Y38.746 E0.08488
G1 X98.132 Y37.918 E0.08488
G1 X100.729 Y37.155 E0.08488
G1 X103.345 Y36.458 E0.08488
G1 X105.978 Y35.827 E0.08488
G1 X108.625 Y35.262 E0.08488
G1 X111.286 Y34.763 E0.08488
G1 X113.958 Y34.332 E0.08488
G1 X116.641 Y33.968 E0.08488
G1 X119.331 Y33.671 E0.08488
G1 X122.029 Y33.443 E0.08488
G1 X124.731 Y33.282 E0.08488
G1 X127.436 Y33.189 E0.08485
G1 X130.589 Y33.168 E0.09888
G1 X132.850 Y33.207 E0.07088
G1 X135.555 Y33.318 E0.08489
G1 X138.256 Y33.497 E0.08488
G1 X140.952 Y33.744 E0.08488
G1 X143.641 Y34.059 E0.08488
G1 X146.322 Y34.441 E0.08494
G1 X147.655 Y34.656 E0.04232
G1 X150.320 Y35.139 E0.08494
G1 X152.971 Y35.689 E0.08488
G1 X155.607 Y36.305 E0.08488
G1 X158.227 Y36.987 E0.08488
G1 X160.829 Y37.735 E0.08488
G1 X163.411 Y38.547 E0.08488
G1 X165.972 Y39.425 E0.08488
G1 X168.511 Y40.367 E0.08494
G1 X169.768 Y40.860 E0.04232
G1 X172.270 Y41.897 E0.08494
G1 X174.744 Y42.996 E0.08488
G1 X177.190 Y44.157 E0.08488
G1 X179.592 Y45.372 E0.08440
G1 X180.800 Y46.012 E0.04286
G1 X183.169 Y47.325 E0.08493
G1 X185.503 Y48.696 E0.08488
G1 X187.802 Y50.125 E0.08488
G1 X190.065 Y51.612 E0.08488
G1 X192.289 Y53.155 E0.08488
G1 X194.475 Y54.755 E0.08494
G1 X195.549 Y55.572 E0.04232
G1 X197.673 Y57.253 E0.08494
G1 X199.753 Y58.986 E0.08488
G1 X201.789 Y60.770 E0.08488
G1 X203.201 Y62.071 E0.06019
G1 X201.192 Y64.196 E0.09173
G1 X199.852 Y62.963 E0.05709
G1 X198.774 Y62.006 E0.04520
G1 X196.724 Y60.259 E0.08444
G1 X194.629 Y58.565 E0.08449
G1 X192.492 Y56.925 E0.08447
G1 X190.272 Y55.311 E0.08606
G1 X188.074 Y53.800 E0.08362
G1 X185.816 Y52.330 E0.08448
G1 X183.521 Y50.918 E0.08449
G1 X181.190 Y49.566 E0.08449
G1 X178.777 Y48.249 E0.08621
G1 X177.577 Y47.624 E0.04241
G1 X175.264 Y46.475 E0.08098
G1 X172.771 Y45.313 E0.08625
G1 X170.283 Y44.233 E0.08504
G1 X167.785 Y43.223 E0.08449
G1 X165.200 Y42.256 E0.08654
G1 X162.649 Y41.377 E0.08458
G1 X160.125 Y40.578 E0.08302
G1 X157.554 Y39.836 E0.08389
G1 X156.216 Y39.478 E0.04343
G1 X153.618 Y38.836 E0.08390
G1 X151.026 Y38.265 E0.08322
G1 X149.590 Y37.978 E0.04594
G1 X146.992 Y37.512 E0.08276
G1 X144.347 Y37.106 E0.08388
G1 X142.991 Y36.925 E0.04290
G1 X140.316 Y36.620 E0.08443
G1 X137.634 Y36.384 E0.08443
G1 X136.203 Y36.286 E0.04496
G1 X133.623 Y36.159 E0.08098
G1 X130.899 Y36.095 E0.08545
G1 X129.531 Y36.089 E0.04287
G1 X126.839 Y36.130 E0.08443
G1 X124.148 Y36.241 E0.08444
G1 X122.710 Y36.328 E0.04518
G1 X120.135 Y36.534 E0.08098
G1 X117.455 Y36.817 E0.08451
G1 X116.075 Y36.989 E0.04361
G1 X113.411 Y37.376 E0.08441
G1 X110.774 Y37.828 E0.08389
G1 X109.430 Y38.084 E0.04290
G1 X106.809 Y38.638 E0.08398
G1 X105.382 Y38.970 E0.04594
G1 X102.877 Y39.602 E0.08099
G1 X100.271 Y40.330 E0.08486
G1 X98.961 Y40.724 E0.04289
G1 X96.398 Y41.549 E0.08441
G1 X93.855 Y42.440 E0.08449
G1 X91.338 Y43.396 E0.08440
G1 X88.842 Y44.417 E0.08458
G1 X86.371 Y45.504 E0.08465
G1 X83.917 Y46.659 E0.08502
G1 X81.510 Y47.870 E0.08447
G1 X79.131 Y49.144 E0.08463
G1 X76.787 Y50.478 E0.08457
G1 X74.575 Y51.812 E0.08098
G1 X73.340 Y52.589 E0.04574
G1 X71.090 Y54.068 E0.08444
G1 X68.864 Y55.616 E0.08500
G1 X66.681 Y57.218 E0.08490
G1 X64.549 Y58.870 E0.08458
G1 X62.470 Y60.568 E0.08415
G1 X60.427 Y62.325 E0.08449
G1 X58.430 Y64.134 E0.08449
G1 X56.470 Y66.005 E0.08494
G1 X55.496 Y66.972 E0.04305
G1 X54.226 Y68.280 E0.05716
G1 X54.195 Y68.852 F10800.000
;TYPE:External perimeter
G1 F1200.000
G1 X51.521 Y66.324 E0.11538
G1 X53.128 Y64.669 E0.07234
G1 X54.091 Y63.712 E0.04255
G1 X56.054 Y61.834 E0.08520
G1 X58.064 Y60.006 E0.08517
G1 X60.119 Y58.229 E0.08517
G1 X62.218 Y56.505 E0.08517
G1 X64.359 Y54.834 E0.08517
G1 X66.542 Y53.217 E0.08517
G1 X68.765 Y51.655 E0.08517
G1 X71.026 Y50.150 E0.08518
G1 X73.325 Y48.702 E0.08517
G1 X75.659 Y47.312 E0.08517
G1 X78.027 Y45.982 E0.08517
G1 X80.428 Y44.711 E0.08517
G1 X82.861 Y43.501 E0.08517
G1 X85.322 Y42.353 E0.08517
G1 X87.812 Y41.267 E0.08517
G1 X90.329 Y40.244 E0.08517
G1 X92.870 Y39.284 E0.08517
G1 X95.435 Y38.388 E0.08517
G1 X98.021 Y37.558 E0.08517
G1 X100.628 Y36.792 E0.08517
G1 X103.253 Y36.092 E0.08517
G1 X105.894 Y35.459 E0.08517
G1 X108.551 Y34.892 E0.08517
G1 X111.221 Y34.392 E0.08517
G1 X113.903 Y33.959 E0.08518
G1 X116.595 Y33.594 E0.08517
G1 X119.295 Y33.296 E0.08517
G1 X122.002 Y33.067 E0.08518
G1 X124.713 Y32.905 E0.08517
G1 X127.428 Y32.812 E0.08517
G1 X130.591 Y32.791 E0.09919
G1 X132.861 Y32.830 E0.07116
G1 X135.575 Y32.941 E0.08518
G1 X138.286 Y33.121 E0.08517
G1 X140.991 Y33.369 E0.08517
G1 X143.689 Y33.685 E0.08517
G1 X146.379 Y34.068 E0.08520
G1 X147.719 Y34.285 E0.04255
G1 X150.392 Y34.769 E0.08520
G1 X153.052 Y35.321 E0.08517
G1 X155.697 Y35.939 E0.08517
G1 X158.326 Y36.623 E0.08517
G1 X160.937 Y37.373 E0.08517
G1 X163.528 Y38.189 E0.08517
G1 X166.098 Y39.070 E0.08517
G1 X168.646 Y40.015 E0.08520
G1 X169.909 Y40.510 E0.04255
G1 X172.419 Y41.551 E0.08520
G1 X174.902 Y42.654 E0.08518
G1 X177.356 Y43.819 E0.08517
G1 X179.765 Y45.037 E0.08466
G1 X180.980 Y45.680 E0.04308
G1 X183.356 Y46.997 E0.08519
G1 X185.698 Y48.373 E0.08518
G1 X188.005 Y49.808 E0.08517
G1 X190.276 Y51.300 E0.08517
G1 X192.508 Y52.848 E0.08517
G1 X194.700 Y54.453 E0.08520
G1 X195.780 Y55.274 E0.04255
G1 X197.911 Y56.960 E0.08520
G1 X199.998 Y58.699 E0.08517
G1 X202.041 Y60.489 E0.08518
M73 P2 R41
G1 X203.738 Y62.052 E0.07232
G1 X201.210 Y64.726 E0.11538
G1 X199.599 Y63.243 E0.06865
G1 X198.526 Y62.291 E0.04497
G1 X196.484 Y60.550 E0.08417
G1 X194.396 Y58.861 E0.08419
G1 X192.266 Y57.227 E0.08417
G1 X190.054 Y55.619 E0.08575
M73 Q2 S42
G1 X187.865 Y54.113 E0.08332
G1 X185.615 Y52.648 E0.08418
G1 X183.328 Y51.242 E0.08418
G1 X181.005 Y49.895 E0.08419
G1 X178.599 Y48.581 E0.08594
G1 X177.406 Y47.960 E0.04218
G1 X175.101 Y46.814 E0.08072
G1 X172.616 Y45.657 E0.08594
G1 X170.137 Y44.580 E0.08473
G1 X167.648 Y43.574 E0.08419
G1 X165.072 Y42.611 E0.08623
G1 X162.531 Y41.735 E0.08427
G1 X160.016 Y40.939 E0.08272
G1 X157.453 Y40.200 E0.08362
G1 X156.122 Y39.843 E0.04321
G1 X153.533 Y39.203 E0.08364
G1 X150.949 Y38.634 E0.08295
G1 X149.519 Y38.349 E0.04571
G1 X146.930 Y37.884 E0.08249
G1 X144.294 Y37.480 E0.08361
G1 X142.945 Y37.299 E0.04267
G1 X140.278 Y36.995 E0.08416
G1 X137.604 Y36.760 E0.08416
G1 X136.181 Y36.663 E0.04473
G1 X133.609 Y36.536 E0.08072
G1 X130.894 Y36.472 E0.08518
G1 X129.533 Y36.466 E0.04264
G1 X126.849 Y36.507 E0.08416
G1 X124.167 Y36.617 E0.08417
G1 X122.736 Y36.704 E0.04495
G1 X120.170 Y36.909 E0.08072
G1 X117.498 Y37.191 E0.08424
G1 X116.125 Y37.363 E0.04338
G1 X113.470 Y37.748 E0.08414
G1 X110.841 Y38.199 E0.08362
G1 X109.504 Y38.454 E0.04267
G1 X106.891 Y39.006 E0.08375
G1 X105.471 Y39.336 E0.04571
G1 X102.974 Y39.966 E0.08073
G1 X100.376 Y40.693 E0.08459
G1 X99.073 Y41.084 E0.04266
G1 X96.518 Y41.906 E0.08414
G1 X93.984 Y42.795 E0.08419
G1 X91.477 Y43.746 E0.08410
G1 X88.989 Y44.765 E0.08427
G1 X86.527 Y45.847 E0.08435
G1 X84.082 Y46.998 E0.08471
G1 X81.684 Y48.204 E0.08417
G1 X79.313 Y49.474 E0.08432
G1 X76.977 Y50.803 E0.08427
G1 X74.773 Y52.133 E0.08072
G1 X73.544 Y52.906 E0.04551
G1 X71.301 Y54.381 E0.08417
G1 X69.083 Y55.922 E0.08469
G1 X66.909 Y57.519 E0.08459
G1 X64.784 Y59.165 E0.08428
G1 X62.712 Y60.857 E0.08385
G1 X60.677 Y62.608 E0.08418
G1 X58.687 Y64.411 E0.08419
G1 X56.733 Y66.275 E0.08467
G1 X55.764 Y67.237 E0.04283
G1 X54.237 Y68.809 E0.06872
G1 X54.083 Y68.468 F10800.000
;WIPE_START
G1 F8640.000
G1 X51.521 Y66.324 E-0.84999
G1 X52.969 Y64.832 E-0.48001
;WIPE_END
G1 E-0.07000 F2100.000
G1 Z0.400 F10800.000
G1 X197.261 Y57.071
G1 Z0.200
G1 E1.40000 F2100.000
;TYPE:Solid infill
;WIDTH:0.421124
G1 F1200.000
G1 X202.544 Y62.354 E0.23497
G1 X202.284 Y62.629 E0.01190
G1 X195.735 Y56.080 E0.29127
G1 X194.306 Y54.981 E0.05668
G1 X193.545 Y54.425 E0.02965
G1 X202.024 Y62.904 E0.37711
G1 X201.764 Y63.179 E0.01190
G1 X191.622 Y53.037 E0.45106
G1 X189.879 Y51.829 E0.06670
G1 X201.504 Y63.454 E0.51703
G1 X201.244 Y63.729 E0.01190
G1 X188.319 Y50.803 E0.57486
G1 X186.842 Y49.861 E0.05508
G1 X197.701 Y60.720 E0.48293
G1 X196.905 Y60.042 E0.03287
G1 X194.736 Y58.290 E0.08768
G1 X185.428 Y48.982 E0.41398
G1 X184.125 Y48.215 E0.04754
G1 X192.472 Y56.561 E0.37119
M73 P2 R40
G1 X190.514 Y55.138 E0.07611
G1 X182.844 Y47.468 E0.34112
G1 X181.644 Y46.803 E0.04313
G1 X188.790 Y53.948 E0.31777
G1 X187.198 Y52.892 E0.06008
G1 X180.456 Y46.150 E0.29983
G1 X179.326 Y45.555 E0.04017
G1 X185.694 Y51.922 E0.28319
G1 X184.305 Y51.068 E0.05129
G1 X178.244 Y45.007 E0.26954
G1 X177.162 Y44.460 E0.03814
G1 X182.978 Y50.276 E0.25867
G1 X181.704 Y49.537 E0.04630
G1 X176.138 Y43.971 E0.24756
G1 X175.120 Y43.488 E0.03544
G1 X180.498 Y48.866 E0.23921
G1 X179.321 Y48.224 E0.04218
G1 X174.130 Y43.033 E0.23085
G1 X173.168 Y42.606 E0.03311
G1 X178.183 Y47.621 E0.22306
G1 X177.097 Y47.070 E0.03830
G1 X172.206 Y42.178 E0.21756
G1 X171.290 Y41.797 E0.03119
G1 X176.034 Y46.541 E0.21100
G1 X174.995 Y46.037 E0.03632
G1 X170.376 Y41.418 E0.20541
M73 Q2 S41
G1 X169.470 Y41.047 E0.03080
G1 X173.994 Y45.571 E0.20119
G1 X172.992 Y45.104 E0.03474
G1 X168.589 Y40.701 E0.19582
G1 X168.410 Y40.631 E0.00604
G1 X167.733 Y40.380 E0.02272
G1 X172.041 Y44.688 E0.19159
G1 X171.095 Y44.277 E0.03242
G1 X166.883 Y40.064 E0.18735
G1 X166.032 Y39.749 E0.02852
G1 X170.162 Y43.879 E0.18366
G1 X169.265 Y43.516 E0.03044
G1 X165.212 Y39.464 E0.18022
M73 P3 R40
G1 X164.399 Y39.185 E0.02705
G1 X168.367 Y43.153 E0.17650
G1 X167.490 Y42.811 E0.02962
G1 X163.585 Y38.906 E0.17366
G1 X162.794 Y38.650 E0.02616
G1 X166.635 Y42.491 E0.17085
G1 X165.781 Y42.172 E0.02869
G1 X162.013 Y38.404 E0.16756
M73 Q3 S41
G1 X161.233 Y38.158 E0.02573
G1 X164.943 Y41.869 E0.16501
G1 X164.127 Y41.587 E0.02715
G1 X160.463 Y37.924 E0.16292
G1 X159.713 Y37.708 E0.02456
G1 X163.310 Y41.306 E0.16000
G1 X162.504 Y41.035 E0.02675
G1 X158.962 Y37.493 E0.15753
G1 X158.212 Y37.277 E0.02456
G1 X161.722 Y40.787 E0.15611
G1 X160.939 Y40.539 E0.02581
G1 X157.486 Y37.086 E0.15357
G1 X156.763 Y36.898 E0.02350
G1 X160.159 Y40.294 E0.15102
G1 X159.407 Y40.077 E0.02461
G1 X156.040 Y36.710 E0.14974
G1 X155.325 Y36.529 E0.02320
G1 X158.655 Y39.860 E0.14812
G1 X157.903 Y39.643 E0.02461
G1 X154.627 Y36.366 E0.14572
G1 X153.929 Y36.203 E0.02254
G1 X157.165 Y39.439 E0.14393
G1 X156.435 Y39.244 E0.02378
G1 X153.231 Y36.040 E0.14248
G1 X152.910 Y35.965 E0.01036
G1 X152.546 Y35.890 E0.01171
G1 X155.720 Y39.064 E0.14119
G1 X155.010 Y38.889 E0.02301
G1 X151.871 Y35.750 E0.13960
G1 X151.196 Y35.610 E0.02167
G1 X154.299 Y38.713 E0.13801
G1 X153.592 Y38.541 E0.02289
G1 X150.521 Y35.470 E0.13657
G1 X149.860 Y35.343 E0.02118
G1 X152.906 Y38.390 E0.13548
G1 X152.220 Y38.239 E0.02209
G1 X149.207 Y35.225 E0.13402
G1 X148.553 Y35.107 E0.02088
G1 X151.534 Y38.088 E0.13257
G1 X150.854 Y37.943 E0.02186
G1 X147.900 Y34.988 E0.13139
G1 X147.255 Y34.878 E0.02057
G1 X150.186 Y37.809 E0.13035
G1 X149.521 Y37.679 E0.02132
G1 X146.617 Y34.775 E0.12914
G1 X146.280 Y34.720 E0.01075
G1 X145.986 Y34.678 E0.00934
G1 X148.869 Y37.562 E0.12823
G1 X148.217 Y37.445 E0.02083
G1 X145.362 Y34.590 E0.12698
G1 X144.738 Y34.501 E0.01981
G1 X147.565 Y37.328 E0.12572
G1 X146.917 Y37.214 E0.02069
G1 X144.114 Y34.412 E0.12464
G1 X143.604 Y34.339 E0.01621
G1 X143.494 Y34.326 E0.00349
G1 X146.285 Y37.117 E0.12414
G1 X145.654 Y37.021 E0.02010
G1 X142.888 Y34.255 E0.12298
G1 X142.283 Y34.184 E0.01918
G1 X145.022 Y36.924 E0.12183
G1 X144.390 Y36.827 E0.02010
G1 X141.677 Y34.114 E0.12067
G1 X141.071 Y34.043 E0.01918
G1 X143.773 Y36.744 E0.12014
G1 X143.155 Y36.662 E0.01959
G1 X140.478 Y33.985 E0.11905
G1 X139.889 Y33.931 E0.01859
G1 X142.549 Y36.590 E0.11826
G1 X141.945 Y36.521 E0.01911
G1 X139.301 Y33.877 E0.11760
G1 X138.712 Y33.823 E0.01859
G1 X141.341 Y36.452 E0.11693
G1 X140.737 Y36.383 E0.01911
G1 X138.126 Y33.772 E0.11614
G1 X137.553 Y33.734 E0.01805
G1 X140.140 Y36.320 E0.11503
G1 X139.553 Y36.269 E0.01852
