; generated by PrusaSlicer 2.3.0 on 2021-08-15 at 18:16:51 UTC

; 

; external perimeters extrusion width = 0.45mm
; perimeters extrusion width = 0.45mm
; infill extrusion width = 0.45mm
; solid infill extrusion width = 0.45mm
; top infill extrusion width = 0.40mm
; first layer extrusion width = 0.42mm

M73 P0 R16
M73 Q0 S17
M201 X1000 Y1000 Z200 E5000 ; sets maximum accelerations, mm/sec^2
M203 X200 Y200 Z12 E120 ; sets maximum feedrates, mm/sec
M204 P1250 R1250 T1250 ; sets acceleration (P, T) and retract acceleration (R), mm/sec^2
M205 X8.00 Y8.00 Z0.40 E4.50 ; sets the jerk limits, mm/sec
M205 S0 T0 ; sets the minimum extruding and travel feed rate, mm/sec
M107
;TYPE:Custom
M862.3 P "MK3S" ; printer model check
M862.1 P0.4 ; nozzle diameter check
M115 U3.9.2 ; tell printer latest fw version
G90 ; use absolute coordinates
M83 ; extruder relative mode
M104 S240 ; set extruder temp
M140 S85 ; set bed temp
M190 S85 ; wait for bed temp
M109 S240 ; wait for extruder temp
G28 W ; home all without mesh bed level
G80 ; mesh bed leveling
G1 Y-3.0 F1000.0 ; go outside print area
G92 E0.0
G1 X60.0 E9.0 F1000.0 ; intro line
G1 X100.0 E12.5 F1000.0 ; intro line
G92 E0.0
M221 S95

; Don't change E values below. Excessive value can damage the printer.
M907 E430 ; set extruder motor current
G21 ; set units to millimeters
G90 ; use absolute coordinates
M83 ; use relative distances for extrusion
M900 K0.08 ; Filament gcode LA 1.5
M900 K45 ; Filament gcode LA 1.0
;LAYER_CHANGE
;Z:0.2
;HEIGHT:0.2
;BEFORE_LAYER_CHANGE
G92 E0.0
;0.2


G1 E-1.40000 F2100.000
G1 Z0.200 F10800.000
;AFTER_LAYER_CHANGE
;0.2
G1 Z0.400
G1 X68.710 Y80.620
M73 Q0 S16
G1 Z0.200
G1 E1.40000 F2100.000
M204 S1000
;TYPE:Skirt
;WIDTH:0.42
G1 F1200.000
G1 X69.030 Y80.021 E0.02129
G1 X69.487 Y79.519 E0.02129
G1 X70.053 Y79.144 E0.02129
G1 X70.693 Y78.919 E0.02129
G1 X71.250 Y78.856 E0.01758
G1 X76.784 Y78.856 E0.17351
G1 X77.310 Y78.907 E0.01656
G1 X77.816 Y79.058 E0.01656
G1 X78.284 Y79.302 E0.01656
G1 X78.694 Y79.629 E0.01643
G1 X79.034 Y80.027 E0.01643
G1 X79.295 Y80.487 E0.01656
G1 X79.463 Y80.987 E0.01656
G1 X79.532 Y81.511 E0.01656
G1 X79.415 Y86.768 E0.16490
G1 X79.058 Y91.918 E0.16186
G1 X78.462 Y97.051 E0.16200
G1 X77.632 Y102.142 E0.16174
G1 X76.561 Y107.217 E0.16262
G1 X75.032 Y113.011 E0.18788
G1 X73.195 Y118.713 E0.18785
G1 X71.355 Y123.578 E0.16307
M73 P1 R16
M73 Q1 S16
G1 X70.810 Y124.793 E0.04175
G1 X70.102 Y125.543 E0.03233
G1 X69.621 Y125.822 E0.01745
G1 X69.089 Y126.000 E0.01758
G1 X68.536 Y126.066 E0.01745
G1 X67.981 Y126.020 E0.01745
G1 X67.203 Y125.773 E0.02559
G1 X62.344 Y123.760 E0.16491
G1 X61.780 Y123.444 E0.02026
G1 X61.226 Y122.906 E0.02422
G1 X60.843 Y122.236 E0.02422
G1 X60.660 Y121.485 E0.02422
G1 X60.694 Y120.713 E0.02422
G1 X68.698 Y80.679 E1.28010
;WIPE_START
G1 F8640.000
G1 X69.030 Y80.021 E-0.17006
G1 X69.487 Y79.519 E-0.15675
G1 X70.053 Y79.144 E-0.15675
G1 X70.693 Y78.919 E-0.15675
G1 X71.250 Y78.856 E-0.12947
G1 X73.676 Y78.856 E-0.56021
;WIPE_END
G1 E-0.07000 F2100.000
G1 Z0.400 F10800.000
G1 X77.682 Y79.411
G1 Z0.200
G1 E1.40000 F2100.000
G1 F1200.000
G1 X78.444 Y79.912 E0.02860
G1 X78.961 Y80.664 E0.02860
G1 X79.157 Y81.559 E0.02872
G1 X79.038 Y86.752 E0.16286
G1 X78.682 Y91.884 E0.16132
G1 X78.089 Y96.996 E0.16133
G1 X77.260 Y102.077 E0.16144
G1 X76.201 Y107.099 E0.16092
G1 X74.906 Y112.088 E0.16160
G1 X73.387 Y116.993 E0.16098
G1 X71.634 Y121.849 E0.16190
G1 X70.647 Y124.304 E0.08296
G1 X70.214 Y124.945 E0.02426
G1 X69.757 Y125.322 E0.01858
G1 X69.220 Y125.573 E0.01858
G1 X68.638 Y125.684 E0.01858
G1 X68.046 Y125.648 E0.01858
G1 X67.321 Y125.414 E0.02389
G1 X62.471 Y123.405 E0.16461
G1 X62.042 Y123.167 E0.01538
G1 X61.546 Y122.703 E0.02130
G1 X61.201 Y122.117 E0.02130
G1 X61.037 Y121.458 E0.02130
G1 X61.065 Y120.779 E0.02130
G1 X69.057 Y80.769 E1.27925
G1 X69.338 Y80.239 E0.01882
G1 X69.743 Y79.796 E0.01882
G1 X70.246 Y79.469 E0.01882
G1 X70.816 Y79.278 E0.01882
G1 X76.784 Y79.233 E0.18714
G1 X77.624 Y79.399 E0.02684
; printing object bracket1-16th-1.stl id:0 copy 0
;WIPE_START
G1 F8640.000
G1 X78.444 Y79.912 E-0.22354
G1 X78.961 Y80.664 E-0.21065
G1 X79.157 Y81.559 E-0.21151
G1 X79.089 Y84.522 E-0.68430
;WIPE_END
G1 E-0.07000 F2100.000
G1 Z0.400 F10800.000
G1 X75.990 Y82.397
G1 Z0.200
G1 E1.40000 F2100.000
;TYPE:Perimeter
G1 F1200.000
G1 X75.942 Y84.942 E0.07982
G1 X75.836 Y87.440 E0.07837
G1 X75.672 Y89.934 E0.07837
G1 X75.451 Y92.424 E0.07837
G1 X75.173 Y94.908 E0.07837
M73 P2 R16
M73 Q2 S16
G1 X74.837 Y97.385 E0.07838
G1 X74.444 Y99.855 E0.07841
G1 X74.150 Y101.494 E0.05222
G1 X73.832 Y103.128 E0.05222
G1 X73.306 Y105.573 E0.07841
G1 X72.725 Y108.004 E0.07838
G1 X72.087 Y110.421 E0.07837
G1 X71.394 Y112.823 E0.07838
G1 X70.645 Y115.208 E0.07837
G1 X69.841 Y117.575 E0.07838
G1 X68.984 Y119.922 E0.07835
G1 X68.047 Y122.290 E0.07985
G1 X64.422 Y120.788 E0.12303
G1 X65.060 Y119.192 E0.05389
G1 X65.935 Y116.844 E0.07856
G1 X66.756 Y114.466 E0.07888
G1 X67.522 Y112.062 E0.07911
G1 X68.224 Y109.661 E0.07843
G1 X68.866 Y107.251 E0.07823
G1 X69.453 Y104.813 E0.07861
G1 X69.982 Y102.362 E0.07862
G1 X70.451 Y99.899 E0.07861
G1 X70.862 Y97.418 E0.07886
G1 X71.212 Y94.941 E0.07843
G1 X71.502 Y92.454 E0.07849
G1 X71.733 Y89.958 E0.07861
G1 X71.903 Y87.456 E0.07861
G1 X72.014 Y84.950 E0.07864
G1 X72.057 Y82.397 E0.08008
G1 X75.930 Y82.397 E0.12145
G1 X76.369 Y82.020 F10800.000
;TYPE:External perimeter
G1 F1200.000
G1 X76.319 Y84.954 E0.09201
G1 X76.212 Y87.460 E0.07865
G1 X76.048 Y89.963 E0.07865
G1 X75.827 Y92.461 E0.07865
G1 X75.547 Y94.954 E0.07865
G1 X75.210 Y97.440 E0.07865
G1 X74.816 Y99.917 E0.07866
G1 X74.521 Y101.563 E0.05242
G1 X74.201 Y103.204 E0.05242
G1 X73.674 Y105.657 E0.07866
G1 X73.090 Y108.096 E0.07865
G1 X72.450 Y110.522 E0.07865
G1 X71.755 Y112.932 E0.07865
G1 X71.004 Y115.325 E0.07865
G1 X70.197 Y117.700 E0.07865
G1 X69.336 Y120.056 E0.07864
G1 X68.257 Y122.785 E0.09202
G1 X63.934 Y120.994 E0.14672
G1 X64.708 Y119.056 E0.06543
G1 X65.580 Y116.717 E0.07828
G1 X66.398 Y114.348 E0.07860
G1 X67.161 Y111.952 E0.07882
G1 X67.860 Y109.560 E0.07815
G1 X68.500 Y107.158 E0.07794
G1 X69.085 Y104.729 E0.07833
G1 X69.612 Y102.287 E0.07833
G1 X70.080 Y99.833 E0.07833
G1 X70.489 Y97.361 E0.07858
G1 X70.838 Y94.893 E0.07815
G1 X71.127 Y92.415 E0.07820
G1 X71.357 Y89.928 E0.07833
G1 X71.527 Y87.435 E0.07833
G1 X71.637 Y84.939 E0.07834
G1 X71.686 Y82.020 E0.09154
G1 X76.309 Y82.020 E0.14494
G1 X76.231 Y82.395 F10800.000
;WIPE_START
G1 F8640.000
G1 X76.319 Y84.954 E-0.67748
G1 X76.212 Y87.460 E-0.57919
G1 X76.192 Y87.777 E-0.07333
;WIPE_END
G1 E-0.07000 F2100.000
G1 Z0.400 F10800.000
G1 X75.113 Y82.510
G1 Z0.200
G1 E1.40000 F2100.000
;TYPE:Solid infill
;WIDTH:0.420011
G1 F1200.000
G1 X75.694 Y83.091 E0.02577
G1 X75.684 Y83.614 E0.01641
G1 X74.750 Y82.680 E0.04144
G1 X74.216 Y82.680 E0.01672
G1 X75.674 Y84.137 E0.06465
G1 X75.664 Y84.661 E0.01641
G1 X73.683 Y82.680 E0.08785
G1 X73.150 Y82.680 E0.01672
G1 X75.649 Y85.178 E0.11080
G1 X75.627 Y85.690 E0.01606
G1 X72.617 Y82.680 E0.13349
M73 P3 R16
G1 X72.335 Y82.680 E0.00884
G1 X72.331 Y82.927 E0.00775
G1 X75.605 Y86.202 E0.14521
M73 Q3 S16
G1 X75.584 Y86.713 E0.01606
G1 X72.322 Y83.451 E0.14464
G1 X72.313 Y83.976 E0.01645
G1 X75.562 Y87.225 E0.14407
G1 X75.533 Y87.730 E0.01585
G1 X72.304 Y84.500 E0.14320
G1 X72.294 Y85.023 E0.01639
G1 X75.501 Y88.230 E0.14221
G1 X75.468 Y88.731 E0.01573
G1 X72.271 Y85.534 E0.14175
G1 X72.249 Y86.045 E0.01603
G1 X75.435 Y89.231 E0.14130
G1 X75.402 Y89.732 E0.01573
G1 X72.226 Y86.555 E0.14084
G1 X72.203 Y87.066 E0.01603
G1 X75.363 Y90.225 E0.14008
G1 X75.319 Y90.715 E0.01542
G1 X72.179 Y87.575 E0.13926
G1 X72.145 Y88.074 E0.01569
G1 X75.276 Y91.205 E0.13884
G1 X75.232 Y91.695 E0.01542
G1 X72.110 Y88.573 E0.13842
G1 X72.076 Y89.072 E0.01569
G1 X75.189 Y92.184 E0.13800
G1 X75.139 Y92.668 E0.01525
G1 X72.042 Y89.571 E0.13733
G1 X72.006 Y90.069 E0.01563
G1 X75.086 Y93.148 E0.13654
G1 X75.032 Y93.627 E0.01513
G1 X71.961 Y90.557 E0.13616
G1 X71.916 Y91.045 E0.01537
G1 X74.978 Y94.107 E0.13577
G1 X74.924 Y94.586 E0.01513
G1 X71.871 Y91.533 E0.13539
G1 X71.826 Y92.021 E0.01537
G1 X74.866 Y95.062 E0.13483
G1 X74.803 Y95.532 E0.01486
G1 X71.780 Y92.509 E0.13403
G1 X71.724 Y92.987 E0.01508
G1 X74.739 Y96.001 E0.13368
G1 X74.675 Y96.471 E0.01486
G1 X71.669 Y93.464 E0.13333
G1 X71.613 Y93.942 E0.01508
G1 X74.612 Y96.940 E0.13298
G1 X74.547 Y97.409 E0.01482
G1 X71.557 Y94.419 E0.13257
G1 X71.502 Y94.897 E0.01508
G1 X74.474 Y97.869 E0.13179
G1 X74.400 Y98.329 E0.01461
G1 X71.437 Y95.366 E0.13139
G1 X71.371 Y95.833 E0.01480
G1 X74.327 Y98.789 E0.13107
G1 X74.254 Y99.249 E0.01461
G1 X71.305 Y96.301 E0.13075
G1 X71.239 Y96.768 E0.01480
G1 X74.181 Y99.709 E0.13042
G1 X74.101 Y100.163 E0.01445
G1 X71.173 Y97.235 E0.12983
G1 X71.102 Y97.697 E0.01466
G1 X74.020 Y100.615 E0.12939
G1 X73.939 Y101.068 E0.01441
G1 X71.027 Y98.155 E0.12916
G1 X70.951 Y98.612 E0.01454
G1 X73.857 Y101.519 E0.12889
G1 X73.770 Y101.965 E0.01426
G1 X70.875 Y99.070 E0.12839
G1 X70.799 Y99.527 E0.01454
G1 X73.683 Y102.412 E0.12790
G1 X73.596 Y102.858 E0.01426
G1 X70.723 Y99.984 E0.12743
G1 X70.637 Y100.432 E0.01430
G1 X73.506 Y103.300 E0.12719
G1 X73.411 Y103.739 E0.01408
G1 X70.552 Y100.880 E0.12679
G1 X70.467 Y101.328 E0.01430
G1 X73.317 Y104.178 E0.12639
G1 X73.223 Y104.617 E0.01408
G1 X70.381 Y101.776 E0.12599
M73 P4 R16
G1 X70.296 Y102.224 E0.01430
M73 Q4 S16
G1 X73.128 Y105.056 E0.12560
G1 X73.034 Y105.495 E0.01408
G1 X70.205 Y102.666 E0.12543
G1 X70.111 Y103.105 E0.01407
G1 X72.931 Y105.926 E0.12507
G1 X72.828 Y106.356 E0.01387
G1 X70.016 Y103.544 E0.12470
G1 X69.921 Y103.982 E0.01407
G1 X72.725 Y106.786 E0.12433
G1 X72.622 Y107.217 E0.01387
G1 X69.827 Y104.421 E0.12396
G1 X69.732 Y104.860 E0.01407
G1 X72.519 Y107.647 E0.12359
G1 X72.414 Y108.075 E0.01381
G1 X69.629 Y105.290 E0.12348
G1 X69.526 Y105.720 E0.01386
G1 X72.302 Y108.496 E0.12313
G1 X72.191 Y108.918 E0.01368
G1 X69.422 Y106.149 E0.12278
G1 X69.319 Y106.579 E0.01386
G1 X72.080 Y109.340 E0.12244
G1 X71.968 Y109.762 E0.01368
G1 X69.215 Y107.009 E0.12209
G1 X69.109 Y107.436 E0.01381
G1 X71.857 Y110.184 E0.12185
G1 X71.741 Y110.601 E0.01357
G1 X68.997 Y107.857 E0.12167
G1 X68.885 Y108.279 E0.01366
G1 X71.621 Y111.015 E0.12134
G1 X71.502 Y111.429 E0.01351
G1 X68.773 Y108.700 E0.12102
G1 X68.660 Y109.121 E0.01366
G1 X71.382 Y111.843 E0.12070
G1 X71.263 Y112.257 E0.01351
G1 X68.548 Y109.542 E0.12038
G1 X68.431 Y109.958 E0.01357
G1 X71.143 Y112.670 E0.12025
G1 X71.017 Y113.078 E0.01337
G1 X68.311 Y110.371 E0.12001
G1 X68.190 Y110.784 E0.01348
G1 X70.890 Y113.483 E0.11971
G1 X70.762 Y113.889 E0.01334
G1 X68.070 Y111.196 E0.11941
G1 X67.949 Y111.609 E0.01348
G1 X70.635 Y114.295 E0.11911
G1 X70.508 Y114.701 E0.01334
G1 X67.828 Y112.022 E0.11881
G1 X67.702 Y112.429 E0.01336
G1 X70.380 Y115.107 E0.11876
G1 X70.245 Y115.505 E0.01319
G1 X67.573 Y112.833 E0.11849
G1 X67.444 Y113.238 E0.01331
G1 X70.110 Y115.904 E0.11821
G1 X69.975 Y116.302 E0.01318
G1 X67.315 Y113.642 E0.11793
G1 X67.187 Y114.047 E0.01331
G1 X69.840 Y116.700 E0.11765
G1 X69.705 Y117.098 E0.01318
G1 X67.058 Y114.451 E0.11737
G1 X66.923 Y114.849 E0.01319
G1 X69.569 Y117.496 E0.11735
G1 X69.427 Y117.886 E0.01304
G1 X66.786 Y115.246 E0.11709
G1 X66.649 Y115.642 E0.01315
G1 X69.284 Y118.277 E0.11683
G1 X69.141 Y118.667 E0.01304
G1 X66.512 Y116.039 E0.11657
G1 X66.375 Y116.435 E0.01315
G1 X68.998 Y119.058 E0.11632
G1 X68.856 Y119.449 E0.01304
G1 X66.238 Y116.831 E0.11606
G1 X66.096 Y117.222 E0.01304
G1 X68.713 Y119.839 E0.11604
G1 X68.561 Y120.221 E0.01289
G1 X65.951 Y117.610 E0.11575
G1 X65.806 Y117.999 E0.01300
G1 X68.410 Y120.603 E0.11547
G1 X68.259 Y120.985 E0.01289
G1 X65.661 Y118.388 E0.11519
G1 X65.517 Y118.776 E0.01300
G1 X68.108 Y121.367 E0.11491
G1 X67.957 Y121.750 E0.01289
G1 X65.372 Y119.165 E0.11463
G1 X65.222 Y119.548 E0.01291
G1 X67.382 Y121.708 E0.09579
G1 X66.472 Y121.331 E0.03090
G1 X65.070 Y119.929 E0.06217
M73 P5 R16
G1 X64.918 Y120.310 E0.01287
G1 X65.875 Y121.268 E0.04245
; stop printing object bracket1-16th-1.stl id:0 copy 0
;LAYER_CHANGE
;Z:0.35
;HEIGHT:0.15
;BEFORE_LAYER_CHANGE
G92 E0.0
;0.35


;WIPE_START
G1 F8640.000
G1 X64.918 Y120.310 E-0.31263
G1 X65.070 Y119.929 E-0.09475
G1 X66.472 Y121.331 E-0.45782
G1 X67.382 Y121.708 E-0.22753
G1 X66.656 Y120.982 E-0.23728
;WIPE_END
M73 Q5 S16
G1 E-0.07000 F2100.000
G1 Z0.400 F10800.000
;AFTER_LAYER_CHANGE
;0.35
M104 S250 ; set temperature
M140 S90 ; set bed temperature
G1 X70.810 Y124.793
G1 Z0.350
G1 E1.40000 F2100.000
;TYPE:Skirt
;WIDTH:0.42
G1 F3000.000
G1 X70.102 Y125.543 E0.02494
G1 X69.621 Y125.822 E0.01346
G1 X69.089 Y126.000 E0.01356
G1 X68.536 Y126.066 E0.01346
G1 X67.981 Y126.020 E0.01346
G1 X67.203 Y125.773 E0.01974
G1 X62.344 Y123.760 E0.12720
G1 X61.780 Y123.444 E0.01563
G1 X61.226 Y122.906 E0.01868
G1 X60.843 Y122.236 E0.01868
G1 X60.660 Y121.485 E0.01868
G1 X60.694 Y120.713 E0.01868
G1 X68.710 Y80.620 E0.98884
G1 X69.030 Y80.021 E0.01642
G1 X69.487 Y79.519 E0.01642
G1 X70.053 Y79.144 E0.01642
G1 X70.693 Y78.919 E0.01642
G1 X71.250 Y78.856 E0.01356
G1 X76.784 Y78.856 E0.13384
G1 X77.310 Y78.907 E0.01277
G1 X77.816 Y79.058 E0.01277
G1 X78.284 Y79.302 E0.01277
G1 X78.694 Y79.629 E0.01267
G1 X79.034 Y80.027 E0.01267
G1 X79.295 Y80.487 E0.01277
G1 X79.463 Y80.987 E0.01277
G1 X79.532 Y81.511 E0.01277
G1 X79.415 Y86.768 E0.12719
G1 X79.058 Y91.918 E0.12485
G1 X78.462 Y97.051 E0.12496
G1 X77.632 Y102.142 E0.12476
G1 X76.561 Y107.217 E0.12544
G1 X75.032 Y113.011 E0.14492
G1 X73.195 Y118.713 E0.14490
G1 X71.355 Y123.578 E0.12578
G1 X70.834 Y124.738 E0.03075
G1 X70.214 Y124.945 F10800.000
G1 F3000.000
G1 X69.757 Y125.322 E0.01433
G1 X69.220 Y125.573 E0.01433
G1 X68.638 Y125.684 E0.01433
G1 X68.046 Y125.648 E0.01433
G1 X67.321 Y125.414 E0.01843
G1 X62.471 Y123.405 E0.12697
G1 X62.042 Y123.167 E0.01186
G1 X61.546 Y122.703 E0.01643
G1 X61.201 Y122.117 E0.01643
M73 P5 R15
G1 X61.037 Y121.458 E0.01643
G1 X61.065 Y120.779 E0.01643
G1 X69.057 Y80.769 E0.98674
G1 X69.338 Y80.239 E0.01452
G1 X69.743 Y79.796 E0.01452
G1 X70.246 Y79.469 E0.01452
G1 X70.816 Y79.278 E0.01452
G1 X76.784 Y79.233 E0.14435
G1 X77.682 Y79.411 E0.02215
G1 X78.444 Y79.912 E0.02206
G1 X78.961 Y80.664 E0.02206
G1 X79.157 Y81.559 E0.02215
G1 X79.038 Y86.752 E0.12562
G1 X78.682 Y91.884 E0.12443
G1 X78.089 Y96.996 E0.12444
G1 X77.260 Y102.077 E0.12453
G1 X76.201 Y107.099 E0.12412
G1 X74.906 Y112.088 E0.12465
G1 X73.387 Y116.993 E0.12417
G1 X71.634 Y121.849 E0.12488
G1 X70.647 Y124.304 E0.06399
G1 X70.248 Y124.896 E0.01726
; printing object bracket1-16th-1.stl id:0 copy 0
;WIPE_START
G1 F8640.000
G1 X69.757 Y125.322 E-0.15018
G1 X69.220 Y125.573 E-0.13685
G1 X68.638 Y125.684 E-0.13685
G1 X68.046 Y125.648 E-0.13685
G1 X67.321 Y125.414 E-0.17593
G1 X64.947 Y124.431 E-0.59335
;WIPE_END
G1 E-0.07000 F2100.000
G1 Z0.550 F10800.000
G1 X68.128 Y122.479
G1 Z0.350
G1 E1.40000 F2100.000
M204 S800
;TYPE:Perimeter
;WIDTH:0.45
G1 F2700.000
G1 X64.234 Y120.867 E0.10982
G1 X64.924 Y119.143 E0.04837
G1 X65.797 Y116.801 E0.06512
G1 X66.622 Y114.412 E0.06585
G1 X67.394 Y111.986 E0.06635
G1 X68.092 Y109.597 E0.06483
G1 X68.727 Y107.210 E0.06437
G1 X69.314 Y104.776 E0.06524
G1 X69.841 Y102.328 E0.06524
G1 X70.310 Y99.869 E0.06524
G1 X70.722 Y97.377 E0.06580
G1 X71.070 Y94.914 E0.06483
G1 X71.359 Y92.438 E0.06495
G1 X71.589 Y89.946 E0.06520
G1 X71.709 Y88.280 E0.04352
G1 X71.801 Y86.641 E0.04276
G1 X71.893 Y84.101 E0.06622
G1 X71.915 Y82.253 E0.04817
G1 X76.135 Y82.253 E0.10994
G1 X76.086 Y84.947 E0.07021
G1 X75.980 Y87.447 E0.06522
G1 X75.816 Y89.945 E0.06522
G1 X75.595 Y92.438 E0.06522
G1 X75.316 Y94.926 E0.06522
G1 X74.980 Y97.406 E0.06522
G1 X74.586 Y99.879 E0.06525
G1 X74.292 Y101.520 E0.04345
G1 X73.973 Y103.157 E0.04345
G1 X73.447 Y105.605 E0.06525
G1 X72.865 Y108.040 E0.06522
G1 X72.226 Y110.460 E0.06522
G1 X71.532 Y112.864 E0.06522
G1 X70.782 Y115.253 E0.06522
G1 X69.977 Y117.624 E0.06525
G1 X69.411 Y119.192 E0.04345
G1 X68.821 Y120.752 E0.04345
G1 X68.151 Y122.424 E0.04694
M204 S1000
G1 X68.359 Y123.027 F10800.000
M204 S800
;TYPE:External perimeter
